X:150
T:Cader Idris
C:John Parry, 1845
N:For the dance "Jenny Jones" by Hazel Moir
S:Colin Hume's website,  colinhume.com  - chords can also be printed below the stave.
Q:1/4=120
M:3/4
L:1/4
R:Waltz
K:C
P:A
|: G | "C"cGE | "Am"C3/D/E | "Dm"FAd | "G7"BGG |\
"C"cGE | "F"F3/G/A | "G7"GcB | "C"c2 :|
P:B
c/d/ | "Am"ece | "G"dBG | "D7"AA/B/c/d/ | "G"BGG |\
"C"ece | "G"dBG | "D7"cBA | "G"G2A/B/ |
P:A3
"C"cGE | "Am"C3/D/E | "Dm"FAd | "G"BGG |\
"C"cGE | "F"F3/G/A | "G7"GcB | "C"c2 |]

